Newaita/actions/16/format-line-spacing-normal.svg

<?xml version="1.0" encoding="UTF-8"?>
<svg xmlns="http://www.w3.org/2000/svg" xmlns:xlink="http://www.w3.org/1999/xlink" width="16pt" height="16pt" viewBox="0 0 16 16" version="1.1">
<g id="surface1">
<path style=" stroke:none;fill-rule:nonzero;fill:rgb(47.058824%,56.470591%,61.176473%);fill-opacity:1;" d="M 0.992188 4.753906 L 0.992188 11.371094 L 4.300781 11.371094 L 4.300781 10.046875 L 2.316406 10.046875 L 2.316406 8.726562 L 2.976562 8.726562 L 2.976562 7.402344 L 2.316406 7.402344 L 2.316406 6.078125 L 4.300781 6.078125 L 4.300781 4.753906 Z M 0.992188 4.753906 "/>
<path style=" stroke:none;fill-rule:nonzero;fill:rgb(25.882354%,25.882354%,25.882354%);fill-opacity:1;" d="M 4.960938 3.433594 C 4.59375 3.433594 4.300781 3.726562 4.300781 4.09375 L 4.300781 6.738281 C 4.300781 7.105469 4.59375 7.402344 4.960938 7.402344 L 14.222656 7.402344 C 14.589844 7.402344 14.882812 7.105469 14.882812 6.738281 L 14.882812 4.09375 C 14.882812 3.726562 14.589844 3.433594 14.222656 3.433594 Z M 5.621094 4.425781 L 13.5625 4.425781 C 13.746094 4.425781 13.890625 4.644531 13.890625 4.921875 L 13.890625 5.914062 C 13.890625 6.1875 13.746094 6.410156 13.5625 6.410156 L 5.621094 6.410156 C 5.441406 6.410156 5.292969 6.1875 5.292969 5.914062 L 5.292969 4.921875 C 5.292969 4.644531 5.441406 4.425781 5.621094 4.425781 Z M 5.621094 4.425781 "/>
<path style=" stroke:none;fill-rule:nonzero;fill:rgb(25.882354%,25.882354%,25.882354%);fill-opacity:1;" d="M 4.960938 8.726562 C 4.59375 8.726562 4.300781 9.019531 4.300781 9.386719 L 4.300781 12.03125 C 4.300781 12.398438 4.59375 12.695312 4.960938 12.695312 L 14.222656 12.695312 C 14.589844 12.695312 14.882812 12.398438 14.882812 12.03125 L 14.882812 9.386719 C 14.882812 9.019531 14.589844 8.726562 14.222656 8.726562 Z M 5.621094 9.71875 L 13.5625 9.71875 C 13.746094 9.71875 13.890625 9.9375 13.890625 10.214844 L 13.890625 11.207031 C 13.890625 11.480469 13.746094 11.703125 13.5625 11.703125 L 5.621094 11.703125 C 5.441406 11.703125 5.292969 11.480469 5.292969 11.207031 L 5.292969 10.214844 C 5.292969 9.9375 5.441406 9.71875 5.621094 9.71875 Z M 5.621094 9.71875 "/>
</g>
</svg>

<svg xmlns="http://www.w3.org/2000/svg" width="16pt" height="16pt" viewBox="0 0 16 16"><path d="M.992 4.754v6.617h3.309v-1.324H2.316v-1.32h.66V7.402h-.66V6.078h1.985V4.754zm0 0" fill="#78909c"/><path d="M4.96 3.434a.657.657 0 0 0-.66.66v2.644a.66.66 0 0 0 .66.664h9.263a.66.66 0 0 0 .66-.664V4.094a.657.657 0 0 0-.66-.66zm.661.992h7.941c.184 0 .329.219.329.496v.992c0 .274-.145.496-.329.496h-7.94c-.18 0-.329-.223-.329-.496v-.992c0-.277.148-.496.328-.496zm0 0M4.96 8.727a.657.657 0 0 0-.66.66v2.644a.66.66 0 0 0 .66.664h9.263a.66.66 0 0 0 .66-.664V9.387a.657.657 0 0 0-.66-.66zm.661.992h7.941c.184 0 .329.219.329.496v.992c0 .273-.145.496-.329.496h-7.94c-.18 0-.329-.223-.329-.496v-.992c0-.277.148-.496.328-.496zm0 0" fill="#424242"/></svg>
